swiss/communes/0339.svg

<?xml version="1.0" encoding="UTF-8" standalone="no"?>
<svg
   xmlns:dc="http://purl.org/dc/elements/1.1/"
   xmlns:cc="http://web.resource.org/cc/"
   xmlns:rdf="http://www.w3.org/1999/02/22-rdf-syntax-ns#"
   xmlns:svg="http://www.w3.org/2000/svg"
   xmlns="http://www.w3.org/2000/svg"
   xmlns:xlink="http://www.w3.org/1999/xlink"
   xmlns:sodipodi="http://sodipodi.sourceforge.net/DTD/sodipodi-0.dtd"
   xmlns:inkscape="http://www.inkscape.org/namespaces/inkscape"
   height="763"
   width="603"
   version="1.0"
   id="svg20"
   sodipodi:version="0.32"
   inkscape:version="0.44.1"
   sodipodi:docname="Rohrbachgraben-coat of arms.svg"
   sodipodi:docbase="F:\Mis Documentos\Mis imágenes\Encyclopédie\Escudos de Suiza">
  <metadata
     id="metadata31">
    <rdf:RDF>
      <cc:Work
         rdf:about="">
        <dc:format>image/svg+xml</dc:format>
        <dc:type
           rdf:resource="http://purl.org/dc/dcmitype/StillImage" />
        <dc:date>07-AUG-2006</dc:date>
        <dc:creator>
          <cc:Agent>
            <dc:title>Jérôme BLUM (wagner51)</dc:title>
          </cc:Agent>
        </dc:creator>
        <cc:license
           rdf:resource="http://creativecommons.org/licenses/GPL/2.0/" />
        <dc:coverage />
        <dc:description>Gabarit pour le Projet:Blasons de WIkipédia</dc:description>
        <dc:subject>
          <rdf:Bag>
            <rdf:li>blason suisse modèle gabarit projet blasons</rdf:li>
          </rdf:Bag>
        </dc:subject>
        <dc:language>fr</dc:language>
        <dc:title>Gabrit d'un blason suisse</dc:title>
      </cc:Work>
      <cc:License
         rdf:about="http://creativecommons.org/licenses/GPL/2.0/">
        <cc:permits
           rdf:resource="http://web.resource.org/cc/Reproduction" />
        <cc:permits
           rdf:resource="http://web.resource.org/cc/Distribution" />
        <cc:requires
           rdf:resource="http://web.resource.org/cc/Notice" />
        <cc:permits
           rdf:resource="http://web.resource.org/cc/DerivativeWorks" />
        <cc:requires
           rdf:resource="http://web.resource.org/cc/ShareAlike" />
        <cc:requires
           rdf:resource="http://web.resource.org/cc/SourceCode" />
      </cc:License>
    </rdf:RDF>
  </metadata>
  <defs
     id="defs29">
    <linearGradient
       id="linearGradient2893">
      <stop
         style="stop-color:#ffffff;stop-opacity:0.3137255;"
         offset="0"
         id="stop2895" />
      <stop
         id="stop2897"
         offset="0.19"
         style="stop-color:#ffffff;stop-opacity:0.25098041;" />
      <stop
         style="stop-color:#6b6b6b;stop-opacity:0.1254902;"
         offset="0.60000002"
         id="stop2901" />
      <stop
         style="stop-color:#000000;stop-opacity:0.1254902;"
         offset="1"
         id="stop2899" />
    </linearGradient>
    <linearGradient
       id="linearGradient2955">
      <stop
         style="stop-color:white;stop-opacity:0;"
         offset="0"
         id="stop2965" />
      <stop
         style="stop-color:black;stop-opacity:0.64583331;"
         offset="1"
         id="stop2959" />
    </linearGradient>
    <radialGradient
       inkscape:collect="always"
       xlink:href="#linearGradient2893"
       id="radialGradient3236"
       gradientUnits="userSpaceOnUse"
       gradientTransform="matrix(1.215027,1.531577e-24,1.464684e-23,1.266667,-839.1924,-490.4894)"
       cx="858.04236"
       cy="579.93323"
       fx="858.04236"
       fy="579.93323"
       r="300" />
  </defs>
  <sodipodi:namedview
     inkscape:window-height="682"
     inkscape:window-width="1024"
     inkscape:pageshadow="2"
     inkscape:pageopacity="0.0"
     guidetolerance="10.0"
     gridtolerance="10.0"
     objecttolerance="10.0"
     borderopacity="1.0"
     bordercolor="#666666"
     pagecolor="#ffffff"
     id="base"
     inkscape:zoom="0.58064139"
     inkscape:cx="577.87475"
     inkscape:cy="360.8531"
     inkscape:window-x="-4"
     inkscape:window-y="-4"
     inkscape:current-layer="layer2"
     showgrid="true"
     showguides="true"
     inkscape:guide-bbox="true" />
  <desc
     id="desc22">Coat of Arms of Canton of Freiburg (Fribourg)</desc>
  <g
     inkscape:groupmode="layer"
     id="layer1"
     inkscape:label="Fond écu"
     sodipodi:insensitive="true">
    <path
       id="path1899"
       d="M 1.5,1.49998 L 1.5,460.3679 C 1.5,626.6785 135.81456,761.5 301.49999,761.5 C 467.18543,761.5 601.5,626.6785 601.5,460.3679 L 601.5,1.49998 L 1.5,1.49998 z "
       style="fill:white;fill-opacity:1" />
  </g>
  <g
     inkscape:groupmode="layer"
     id="layer2"
     inkscape:label="Meubles"
     sodipodi:insensitive="true">
    <g
       id="g30665"
       transform="matrix(3.970932,0,0,3.970932,-2486.638,-2260.623)">
      <path
         transform="matrix(0.468381,-0.586871,1.065247,0.77063,-276.3667,509.2285)"
         d="M 646.04454 579.396 A 4.1166811 3.293345 0 1 1  637.81118,579.396 A 4.1166811 3.293345 0 1 1  646.04454 579.396 z"
         sodipodi:ry="3.293345"
         sodipodi:rx="4.1166811"
         sodipodi:cy="579.396"
         sodipodi:cx="641.92786"
         id="path26232"
         style="opacity:1;fill:black;fill-opacity:1;fill-rule:nonzero;stroke:white;stroke-width:1;stroke-miterlimit:4;stroke-dasharray:none;stroke-opacity:1"
         sodipodi:type="arc" />
      <path
         sodipodi:nodetypes="cscccccccccccccccccscccccccccccccsccccssccccccccccccscccsccccccccccccccccccccsccccccscccccc"
         id="path25345"
         d="M 632.46138,686.42194 C 651.24898,701.01551 637.45147,723.57926 646.44084,728.27445 C 651.73003,731.03701 656.61023,735.14829 663.43057,734.02917 L 666.235,738.27445 C 667.01834,736.18549 666.40983,734.29537 665.96056,732.3825 C 668.55597,733.29174 669.2355,735.02207 670.68611,736.42194 C 670.55629,733.95399 670.50679,731.44587 669.31389,729.50945 C 671.37422,730.20619 672.5288,731.58224 673.90222,732.79417 C 673.93817,730.56207 673.03766,728.79821 671.98973,727.10805 L 676.85251,728.06861 C 676.19417,726.28269 674.83296,725.19964 673.07888,724.50945 C 674.57239,723.17645 676.76098,723.40736 678.97083,723.68611 C 676.58361,721.97575 674.73901,718.86362 670.27445,722.51972 C 666.36614,723.74551 662.99056,720.41852 658.01027,720.80444 L 653.77362,724.85251 L 658.01027,720.80444 C 659.67694,708.7261 666.02489,690.45255 660,686.765 L 651.92112,677.3825 C 655.09436,679.8925 659.84812,684.54577 663.77363,685.04971 C 665.21502,685.22669 665.71209,685.15273 667.00129,685.82459 C 677.85824,691.48267 652.43962,720.83911 685.34306,713.54889 C 687.82308,712.8438 689.48434,714.6983 690.96056,716.69638 C 691.22718,714.62467 690.22687,713.09592 689.24528,711.55916 C 690.82376,711.40873 692.14718,712.27859 693.55916,712.79417 C 693.13628,710.81436 691.47248,709.45501 690,708 C 692.09532,708.06121 693.56608,708.95516 695.13722,709.71528 C 693.96989,707.20716 692.33319,705.63778 690.06861,705.32416 C 692.14123,704.16634 694.06938,704.30879 695.96056,704.7839 C 695.60723,702.32849 693.11585,702.24871 691.235,701.49055 L 697.25555,699.37223 C 691.93363,694.1394 686.94112,700.65298 681.7839,701.29335 C 671.90676,704.33092 670.4427,707.67562 670.27445,710.74445 C 670.40104,707.6757 671.8563,704.20944 681.7839,701.29335 C 686.16314,687.0621 695.41518,671.07677 675.54889,666.62777 C 666.90974,664.69306 658.60778,664.8618 650.13722,664.64667 L 659.31389,654.70665 C 654.42641,650.04699 645.66218,649.75988 647.86532,637.41781 C 645.65873,649.80582 654.49521,650.04644 659.31389,654.70665 C 659.31389,654.70665 667.09454,657.79876 675,663 C 678.77,665.4804 684.89092,668.65452 691.16437,654.94062 C 692.34394,652.36207 694.93631,647.13582 700,648 C 698.41775,645.75357 696.8355,646.36717 695.25325,646.31033 C 696.08968,644.20179 697.7412,644.53852 699.0366,643.80687 C 697.48156,643.375 695.89837,643.02754 693.83563,644.11876 C 693.66792,642.57376 695.29308,641.62638 696.60391,640.57422 C 694.7269,639.39293 693.25108,641.01989 691.60391,641.4475 C 691.33153,639.4852 693.17074,638.80894 694.32078,637.32078 C 690.69866,636.33634 690.69636,637.64615 689.12672,638.92469 C 688.23282,637.04638 690.12231,635.40001 692.28313,633.77625 C 683.35687,631.98802 686.0016,643.13362 680,650.8139 L 682.61984,654.94062 L 680,650.8139 C 677.65422,648.69479 674.57908,643.99804 672.23172,641.78421 C 665.54418,635.47708 658.30165,621.8047 652.1861,622.90297 C 658.28475,621.811 662.93067,631.99572 669.61188,638.29109 C 670.09597,631.75878 669.24255,627.02678 668.105,621.15641 C 669.25685,626.88697 670.12882,631.71654 669.61188,638.29109 C 669.51585,639.5124 671.96275,640.35443 672.23172,641.78421 L 694.51484,616.00796 C 699.81755,609.31282 693.38348,599.3523 697.23172,589.2614 C 695.66802,589.8873 694.05197,590.42157 693.49312,592.80594 C 692.42314,591.70258 692.20511,590.42883 692.42578,589.06734 C 690.47882,590.71139 690.38034,592.66352 689.90297,594.5525 C 688.1,593.11224 688.72426,591.67198 688.29906,590.23172 C 685.61716,592.2053 685.69083,595.98259 687.32875,596.64156 C 685.74994,596.25464 684.93956,594.05585 683.8318,592.72683 C 682.83479,594.85747 682.04368,596.98812 683.4475,599.11876 L 678.97828,596.05938 C 679.26175,600.42942 683.80292,603.92189 683.15641,609.5525 C 682.80047,614.523 686.6746,616.28279 690.82187,617.61188 C 686.59888,616.22262 682.79626,614.50642 683.15641,609.5525 L 668.4475,620.96235 C 665.14232,613.86333 658.09168,611.98324 653.83361,606.77362 C 646.89688,607.72442 640.51457,607.79987 638.42194,600.94166 C 640.48507,607.78142 646.90431,607.68368 653.83361,606.77362 C 657.80444,606.54204 660.08793,605.77513 665.7461,606.07888 C 671.43538,607.02002 669.2382,600.95096 670.54889,598 C 663.60248,602.13293 656.60958,601.46893 656.44705,597.34368 C 656.23836,591.90955 658.85681,591.12343 670.13722,588.96056 L 672.80444,591.69638 L 674.93139,584.7839 C 675.94579,581.85159 667.25842,583.36593 663.42194,582.65694 C 659.9172,577.97673 648.86094,578.1058 641.98973,581.765 C 628.98631,574.2089 627.60198,584.44007 635.82334,591.08751 C 633.31422,596.83092 633.346,603.03962 635.35271,608.19921 C 638.38104,615.98557 634.78743,619.63653 632.60723,626.56779 L 636.29499,624.64667 C 636.18291,627.6414 635.18209,630.45839 634.17666,633.27445 L 639.58833,630.05834 C 635.14214,652.81136 623.50317,665.24772 629.79416,690.74445 L 632.46138,686.42194 z "
         style="fill:black;fill-opacity:1;fill-rule:evenodd;stroke:white;stroke-width:1px;stroke-linecap:butt;stroke-linejoin:miter;stroke-opacity:1" />
      <path
         sodipodi:nodetypes="ccsc"
         id="path27119"
         d="M 656,598 C 664.77663,593.16581 683.0981,595.49024 679,581 C 684.93093,582.67069 687.56637,594.60723 676.82766,594.90297 C 666.38435,595.19057 656,598 656,598 z "
         style="fill:#e20909;fill-opacity:1;fill-rule:evenodd;stroke:black;stroke-width:1px;stroke-linecap:butt;stroke-linejoin:miter;stroke-opacity:1" />
      <path
         sodipodi:nodetypes="cccccc"
         id="path27121"
         d="M 650,584 L 653,584 L 653,587 C 655.09541,586.73028 655.38034,585.25356 656,584 L 659.51484,584.19406 C 657.83885,588.91743 650.2678,590.63494 650,584 z "
         style="fill:white;fill-opacity:1;fill-rule:evenodd;stroke:black;stroke-width:1px;stroke-linecap:butt;stroke-linejoin:miter;stroke-opacity:0" />
      <path
         sodipodi:nodetypes="cccc"
         id="path27123"
         d="M 650.66795,665.99614 L 645,671 L 652,677 L 650.66795,665.99614 z "
         style="fill:#e20909;fill-opacity:1;fill-rule:evenodd;stroke:black;stroke-width:1px;stroke-linecap:butt;stroke-linejoin:miter;stroke-opacity:1" />
    </g>
    <path
       style="opacity:1;fill:#5ab532;fill-opacity:1;fill-rule:nonzero;stroke:black;stroke-width:2.98510194;stroke-miterlimit:4;stroke-dasharray:none;stroke-opacity:1"
       d="M 301.5,1.5 L 301.5,264.53125 C 349.24179,259.04114 348.69717,348.0997 416.03125,278.65625 C 433.94144,257.79004 469.73994,259.22672 488.34375,279.78125 C 550.64279,348.52287 558.77535,261.94929 601.5,264.5625 L 601.5,1.5 L 301.5,1.5 z M 304.5625,428.625 C 303.56274,428.607 302.53643,428.65522 301.5,428.71875 L 301.5,761.5 C 467.18546,761.5 601.5,626.6856 601.5,460.375 L 601.5,429.09375 C 563.16488,437.42309 537.33622,513.61019 486,450.03125 C 469.24434,429.27969 438.4828,431.55859 419.78125,450.03125 C 358.40757,510.65374 349.63872,429.43659 304.5625,428.625 z "
       id="rect31559" />
  </g>
  <g
     inkscape:groupmode="layer"
     id="layer3"
     inkscape:label="Reflet final"
     style="display:inline"
     sodipodi:insensitive="true">
    <path
       style="fill:url(#radialGradient3236);fill-opacity:1"
       d="M 1.5,1.5 L 1.5,460.3679 C 1.5,626.67854 135.81454,761.5 301.49993,761.5 C 467.1854,761.5 601.5,626.67854 601.5,460.3679 L 601.5,1.5 L 1.5,1.5 z "
       id="path2346" />
  </g>
  <g
     inkscape:groupmode="layer"
     id="layer4"
     inkscape:label="Contour final"
     style="display:inline"
     sodipodi:insensitive="true">
    <path
       style="fill:none;fill-opacity:1;stroke:black;stroke-width:3;stroke-miterlimit:4;stroke-dasharray:none;stroke-opacity:1"
       d="M 1.5,1.5 L 1.5,460.36794 C 1.5,626.67854 135.81454,761.5 301.49993,761.5 C 467.1854,761.5 601.5,626.67854 601.5,460.36794 L 601.5,1.5 L 1.5,1.5 z "
       id="path3239" />
  </g>
</svg>

<svg xmlns="http://www.w3.org/2000/svg" xmlns:xlink="http://www.w3.org/1999/xlink" height="763" width="603" version="1.0"><defs><radialGradient xlink:href="#a" id="b" gradientUnits="userSpaceOnUse" gradientTransform="matrix(1.21503 0 0 1.26667 -839.192 -490.49)" cx="858.042" cy="579.933" fx="858.042" fy="579.933" r="300"/><linearGradient id="a"><stop style="stop-color:#fff;stop-opacity:.3137255" offset="0"/><stop offset=".19" style="stop-color:#fff;stop-opacity:.25098041"/><stop style="stop-color:#6b6b6b;stop-opacity:.1254902" offset=".6"/><stop style="stop-color:#000;stop-opacity:.1254902" offset="1"/></linearGradient></defs><path d="M1.5 1.5v458.868c0 166.31 134.315 301.132 300 301.132s300-134.822 300-301.132V1.5H1.5z" style="fill:#fff;fill-opacity:1"/><path transform="matrix(1.8599 -2.33042 4.23002 3.06012 -3584.071 -238.511)" d="M646.045 579.396a4.117 3.293 0 1 1-8.234 0 4.117 3.293 0 1 1 8.234 0z" style="opacity:1;fill:#000;fill-opacity:1;fill-rule:nonzero;stroke:#fff;stroke-width:1;stroke-miterlimit:4;stroke-dasharray:none;stroke-opacity:1"/><path d="M632.461 686.422c18.788 14.594 4.99 37.157 13.98 41.852 5.289 2.763 10.17 6.874 16.99 5.755l2.804 4.245c.783-2.089.175-3.979-.274-5.891 2.595.909 3.274 2.64 4.725 4.039-.13-2.468-.18-4.976-1.372-6.913 2.06.697 3.215 2.073 4.588 3.285.036-2.232-.864-3.996-1.912-5.686l4.863.96c-.659-1.785-2.02-2.868-3.774-3.559 1.493-1.333 3.682-1.102 5.892-.823-2.387-1.71-4.232-4.822-8.697-1.166-3.908 1.226-7.283-2.101-12.264-1.716l-4.236 4.049 4.236-4.049c1.667-12.078 8.015-30.351 1.99-34.039l-8.079-9.382c3.173 2.51 7.927 7.163 11.853 7.667 1.441.177 1.938.103 3.227.775 10.857 5.658-14.561 35.014 18.342 27.724 2.48-.705 4.141 1.15 5.618 3.147.266-2.071-.734-3.6-1.716-5.137 1.579-.15 2.902.72 4.314 1.235-.423-1.98-2.087-3.339-3.559-4.794 2.095.061 3.566.955 5.137 1.715-1.167-2.508-2.804-4.077-5.068-4.39 2.072-1.159 4-1.016 5.892-.541-.354-2.456-2.845-2.535-4.726-3.293l6.02-2.119c-5.321-5.233-10.314 1.281-15.471 1.921-9.877 3.038-11.341 6.383-11.51 9.451.127-3.068 1.582-6.535 11.51-9.45 4.38-14.232 13.631-30.217-6.235-34.666-8.64-1.935-16.941-1.766-25.412-1.981l9.177-9.94c-4.888-4.66-13.652-4.947-11.449-17.29-2.206 12.389 6.63 12.63 11.449 17.29 0 0 7.78 3.092 15.686 8.293 3.77 2.48 9.89 5.655 16.164-8.06 1.18-2.578 3.772-7.804 8.836-6.94-1.582-2.246-3.164-1.633-4.747-1.69.837-2.108 2.488-1.771 3.784-2.503-1.555-.432-3.139-.78-5.201.312-.168-1.545 1.457-2.493 2.768-3.545-1.877-1.181-3.353.446-5 .874-.272-1.963 1.567-2.64 2.717-4.127-3.622-.985-3.625.325-5.194 1.604-.894-1.879.995-3.525 3.156-5.149-8.926-1.788-6.281 9.358-12.283 17.038l2.62 4.127-2.62-4.127c-2.346-2.12-5.42-6.816-7.768-9.03-6.688-6.307-13.93-19.98-20.046-18.881 6.099-1.092 10.745 9.093 17.426 15.388.484-6.532-.37-11.264-1.507-17.135 1.152 5.731 2.024 10.56 1.507 17.135-.096 1.221 2.35 2.063 2.62 3.493l22.283-25.776c5.303-6.695-1.132-16.656 2.717-26.747-1.564.626-3.18 1.16-3.739 3.545-1.07-1.103-1.288-2.377-1.067-3.739-1.947 1.644-2.046 3.597-2.523 5.486-1.803-1.44-1.179-2.881-1.604-4.321-2.682 1.973-2.608 5.75-.97 6.41-1.58-.387-2.39-2.586-3.497-3.915-.997 2.13-1.788 4.261-.385 6.392l-4.469-3.06c.284 4.37 4.825 7.863 4.178 13.494-.356 4.97 3.519 6.73 7.666 8.059-4.223-1.39-8.026-3.106-7.666-8.06l-14.708 11.41c-3.306-7.099-10.356-8.979-14.614-14.188-6.937.95-13.32 1.026-15.412-5.832 2.063 6.84 8.482 6.742 15.412 5.832 3.97-.232 6.254-.999 11.912-.695 5.69.941 3.492-5.128 4.803-8.079-6.947 4.133-13.94 3.469-14.102-.656-.209-5.434 2.41-6.22 13.69-8.383l2.667 2.735 2.127-6.912c1.015-2.932-7.673-1.418-11.51-2.127-3.504-4.68-14.56-4.551-21.431-.892-13.004-7.556-14.388 2.675-6.167 9.323-2.509 5.743-2.477 11.952-.47 17.111 3.028 7.787-.566 11.438-2.746 18.369l3.688-1.921c-.112 2.994-1.113 5.811-2.118 8.627l5.411-3.216c-4.446 22.753-16.085 35.19-9.794 60.686l2.667-4.322z" style="fill:#000;fill-opacity:1;fill-rule:evenodd;stroke:#fff;stroke-width:1px;stroke-linecap:butt;stroke-linejoin:miter;stroke-opacity:1" transform="translate(-2486.638 -2260.623) scale(3.97093)"/><path d="M656 598c8.777-4.834 27.098-2.51 23-17 5.93 1.67 8.566 13.607-2.172 13.903C666.384 595.191 656 598 656 598z" style="fill:#e20909;fill-opacity:1;fill-rule:evenodd;stroke:#000;stroke-width:1px;stroke-linecap:butt;stroke-linejoin:miter;stroke-opacity:1" transform="translate(-2486.638 -2260.623) scale(3.97093)"/><path d="M650 584h3v3c2.095-.27 2.38-1.746 3-3l3.515.194c-1.676 4.723-9.247 6.44-9.515-.194z" style="fill:#fff;fill-opacity:1;fill-rule:evenodd;stroke:#000;stroke-width:1px;stroke-linecap:butt;stroke-linejoin:miter;stroke-opacity:0" transform="translate(-2486.638 -2260.623) scale(3.97093)"/><path d="M650.668 665.996 645 671l7 6-1.332-11.004z" style="fill:#e20909;fill-opacity:1;fill-rule:evenodd;stroke:#000;stroke-width:1px;stroke-linecap:butt;stroke-linejoin:miter;stroke-opacity:1" transform="translate(-2486.638 -2260.623) scale(3.97093)"/><path style="opacity:1;fill:#5ab532;fill-opacity:1;fill-rule:nonzero;stroke:#000;stroke-width:2.98510194;stroke-miterlimit:4;stroke-dasharray:none;stroke-opacity:1" d="M301.5 1.5v263.031c47.742-5.49 47.197 83.569 114.531 14.125 17.91-20.866 53.709-19.43 72.313 1.125 62.299 68.742 70.431-17.832 113.156-15.219V1.5h-300zm3.063 427.125c-1-.018-2.027.03-3.063.094V761.5c165.685 0 300-134.814 300-301.125v-31.281c-38.335 8.33-64.164 84.516-115.5 20.937-16.756-20.751-47.517-18.472-66.219 0-61.373 60.623-70.142-20.594-115.219-21.406z"/><g style="display:inline"><path style="fill:url(#b);fill-opacity:1" d="M1.5 1.5v458.868c0 166.31 134.315 301.132 300 301.132s300-134.821 300-301.132V1.5H1.5z"/></g><g style="display:inline"><path style="fill:none;fill-opacity:1;stroke:#000;stroke-width:3;stroke-miterlimit:4;stroke-dasharray:none;stroke-opacity:1" d="M1.5 1.5v458.868c0 166.31 134.315 301.132 300 301.132s300-134.821 300-301.132V1.5H1.5z"/></g></svg>
